icons/bitbucket.svg

<!--
  - The MIT License (MIT)
  -
  - Copyright (c) 2015-2024 Elior "Mallowigi" Boukhobza
  -
  - Permission is hereby granted, free of charge, to any person obtaining a copy
  - of this software and associated documentation files (the "Software"), to deal
  - in the Software without restriction, including without limitation the rights
  - to use, copy, modify, merge, publish, distribute, sublicense, and/or sell
  - copies of the Software, and to permit persons to whom the Software is
  - furnished to do so, subject to the following conditions:
  -
  - The above copyright notice and this permission notice shall be included in all
  - copies or substantial portions of the Software.
  -
  - THE SOFTWARE IS PROVIDED "AS IS", WITHOUT WARRANTY OF ANY KIND, EXPRESS OR
  - IMPLIED, INCLUDING BUT NOT LIMITED TO THE WARRANTIES OF MERCHANTABILITY,
  - FITNESS FOR A PARTICULAR PURPOSE AND NONINFRINGEMENT. IN NO EVENT SHALL THE
  - AUTHORS OR COPYRIGHT HOLDERS BE LIABLE FOR ANY CLAIM, DAMAGES OR OTHER
  - LIABILITY, WHETHER IN AN ACTION OF CONTRACT, TORT OR OTHERWISE, ARISING FROM,
  - OUT OF OR IN CONNECTION WITH THE SOFTWARE OR THE USE OR OTHER DEALINGS IN THE
  - SOFTWARE.
  -
  -->

<svg  xmlns="http://www.w3.org/2000/svg" width="16px" height="16px" viewBox="0 0 14 14">
  <g stroke="none" stroke-width="1" fill="#2684FF" data-iconColor="Bitbucket Pipelines" fill-rule="evenodd">
    <polygon fill="none"
             points="5.49462409 8.49565205 8.39462409 8.49565205 9.09462409 4.30144152 4.72351298 4.30144152"></polygon>
    <path
        d="M0.450179643,3.80102673e-05 C0.318882874,-0.00169995857 0.193557222,0.0562373633 0.107821229,0.158308319 C0.0220852366,0.260379274 -0.0152849516,0.396135632 0.00573519851,0.529160817 L1.89240187,12.2838977 C1.94092411,12.5808212 2.19017219,12.7991228 2.48351298,12.801617 L11.5346241,12.801617 C11.7547987,12.8045253 11.9438559,12.6415381 11.9790685,12.4184591 L13.8657352,0.531441519 C13.8867553,0.398416334 13.8493852,0.262659976 13.7636492,0.160589021 C13.6779132,0.0585180651 13.5525875,0.000580743182 13.4212908,0.00231871202 L0.450179643,3.80102673e-05 Z M8.39462409,8.49565205 L5.5057352,8.49565205 L4.72351298,4.30144152 L9.09462409,4.30144152 L8.39462409,8.49565205 Z"></path>
    <path
        d="M13.2657352,4.30144152 L9.09462409,4.30144152 L8.39462409,8.49565205 L5.5057352,8.49565205 L2.09462409,12.6510906 C2.20274124,12.7470404 2.34058578,12.8003955 2.48351298,12.801617 L11.5368463,12.801617 C11.7570209,12.8045253 11.9460781,12.6415381 11.9812908,12.4184591 L13.2657352,4.30144152 Z"></path>
  </g>
</svg>

<svg xmlns="http://www.w3.org/2000/svg" viewBox="0 0 14 14"><g fill="#2684ff" fill-rule="evenodd" data-iconColor="Bitbucket Pipelines"><path fill="none" d="M5.495 8.496h2.9l.7-4.195H4.724z"/><path d="M.45 0a.44.44 0 0 0-.342.158.47.47 0 0 0-.102.371l1.886 11.755a.61.61 0 0 0 .592.518h9.05c.22.003.41-.16.445-.384L13.866.531a.47.47 0 0 0-.102-.37.44.44 0 0 0-.343-.159zm7.945 8.496h-2.89L4.725 4.3h4.37z"/><path d="M13.266 4.301H9.095l-.7 4.195h-2.89l-3.41 4.155c.108.096.246.15.389.15h9.053c.22.004.41-.16.444-.383z"/></g></svg>
